icons/evolvere-blue-folders-flat-vivid-dark-fallback/status/64/dialog-error.svg

<?xml version="1.0" encoding="UTF-8" standalone="no"?>
<!-- Created with Inkscape (http://www.inkscape.org/) -->

<svg
   xmlns:dc="http://purl.org/dc/elements/1.1/"
   xmlns:cc="http://creativecommons.org/ns#"
   xmlns:rdf="http://www.w3.org/1999/02/22-rdf-syntax-ns#"
   xmlns:svg="http://www.w3.org/2000/svg"
   xmlns="http://www.w3.org/2000/svg"
   xmlns:sodipodi="http://sodipodi.sourceforge.net/DTD/sodipodi-0.dtd"
   xmlns:inkscape="http://www.inkscape.org/namespaces/inkscape"
   width="64"
   height="64"
   id="svg13094"
   version="1.1"
   inkscape:version="0.48.4 r9939"
   sodipodi:docname="dialog-error.svg">
  <sodipodi:namedview
     id="base"
     pagecolor="#ffffff"
     bordercolor="#666666"
     borderopacity="1.0"
     inkscape:pageopacity="0"
     inkscape:pageshadow="2"
     inkscape:zoom="11.313709"
     inkscape:cx="37.804324"
     inkscape:cy="31.140301"
     inkscape:document-units="px"
     inkscape:current-layer="svg13094"
     showgrid="true"
     inkscape:snap-bbox="true"
     inkscape:bbox-paths="true"
     inkscape:bbox-nodes="true"
     inkscape:snap-bbox-edge-midpoints="true"
     inkscape:snap-bbox-midpoints="true"
     inkscape:object-paths="true"
     inkscape:snap-intersection-paths="true"
     inkscape:object-nodes="true"
     inkscape:snap-smooth-nodes="true"
     inkscape:snap-midpoints="true"
     inkscape:snap-object-midpoints="true"
     inkscape:snap-center="true"
     showguides="true"
     inkscape:guide-bbox="true"
     inkscape:window-width="1920"
     inkscape:window-height="1025"
     inkscape:window-x="-2"
     inkscape:window-y="32"
     inkscape:window-maximized="1"
     inkscape:snap-global="true"
     fit-margin-top="0"
     fit-margin-left="0"
     fit-margin-right="0"
     fit-margin-bottom="0"
     showborder="true"
     inkscape:showpageshadow="false"
     inkscape:snap-page="true">
    <inkscape:grid
       type="xygrid"
       id="grid3075"
       empspacing="5"
       visible="true"
       enabled="true"
       snapvisiblegridlinesonly="true"
       originx="0px"
       originy="18px" />
  </sodipodi:namedview>
  <defs
     id="defs13096">
    <linearGradient
       id="linearGradient4158">
      <stop
         offset="0"
         style="stop-color:#d85840;stop-opacity:1;"
         id="stop4160" />
      <stop
         offset="1"
         style="stop-color:#b43932;stop-opacity:1;"
         id="stop4162" />
    </linearGradient>
  </defs>
  <metadata
     id="metadata13099">
    <rdf:RDF>
      <cc:Work
         rdf:about="">
        <dc:format>image/svg+xml</dc:format>
        <dc:type
           rdf:resource="http://purl.org/dc/dcmitype/StillImage" />
        <dc:title />
      </cc:Work>
    </rdf:RDF>
  </metadata>
  <path
     inkscape:connector-curvature="0"
     style="color:#000000;fill:#cd4231;fill-opacity:1;fill-rule:nonzero;stroke:none;stroke-width:2.28571415000000000;marker:none;visibility:visible;display:inline;overflow:visible;enable-background:accumulate"
     d="m 0,4 0,30 0,28 2,2 30,0 30,0 2,-2 L 64,34 64,4 32,4 0,4 z"
     id="path3443" />
  <path
     inkscape:connector-curvature="0"
     style="color:#000000;fill:#ff714d;fill-opacity:1;fill-rule:nonzero;stroke:none;stroke-width:2.28571415000000000;marker:none;visibility:visible;display:inline;overflow:visible;enable-background:accumulate"
     d="M 2,0 0,1 0,4 32,4 64,4 64,1 62,0 32,0 2,0 z"
     id="path3447" />
  <path
     style="fill:#ff896a;fill-opacity:1;fill-rule:nonzero"
     d="M 0,3 0,6 2,4 z"
     id="path4298"
     inkscape:connector-curvature="0"
     sodipodi:nodetypes="cccc" />
  <path
     d="M 64,6 62,4 64,3 z"
     id="path3028"
     style="fill:#e4593f;fill-opacity:1"
     inkscape:connector-curvature="0" />
  <g
     id="g3043"
     inkscape:export-filename="folder.png"
     inkscape:export-xdpi="90"
     inkscape:export-ydpi="90"
     transform="translate(-0.625,0.082283)" />
  <g
     id="scalable"
     transform="matrix(1.0385892,0,0,1.0385892,1214.7222,1878.8121)"
     inkscape:label="#g3701"
     style="fill:#ffffff" />
  <path
     inkscape:connector-curvature="0"
     style="font-size:medium;font-style:normal;font-variant:normal;font-weight:normal;font-stretch:normal;text-indent:0;text-align:start;text-decoration:none;line-height:normal;letter-spacing:normal;word-spacing:normal;text-transform:none;direction:ltr;block-progression:tb;writing-mode:lr-tb;text-anchor:start;baseline-shift:baseline;color:#000000;fill:#fae4d6;fill-opacity:1;stroke:none;stroke-width:2.28571415000000000;marker:none;visibility:visible;display:inline;overflow:visible;enable-background:accumulate;font-family:Sans;-inkscape-font-specification:Sans"
     d="M 32,15 C 21.534529,15 13,23.534529 13,34 13,44.465743 21.534529,53 32,53 42.465444,53 51,44.465743 51,34 51,23.534529 42.465444,15 32,15 z m -5.65625,9.5 c 0.255619,0 0.522881,0.116631 0.71875,0.3125 L 32,29.75 36.9375,24.8125 c 0.391737,-0.391737 1.045763,-0.391737 1.4375,0 l 2.8125,2.8125 c 0.391737,0.391737 0.391737,1.045763 0,1.4375 L 36.25,34 l 4.9375,4.9375 c 0.391737,0.391737 0.391737,1.045763 0,1.4375 l -2.8125,2.8125 c -0.391737,0.391737 -1.045763,0.391737 -1.4375,0 L 32,38.25 27.0625,43.1875 c -0.391737,0.391737 -1.045763,0.391737 -1.4375,0 L 22.8125,40.375 c -0.391737,-0.391737 -0.391737,-1.045763 0,-1.4375 L 27.75,34 22.8125,29.0625 c -0.391737,-0.391737 -0.391737,-1.045763 0,-1.4375 L 25.625,24.8125 C 25.820869,24.616631 26.088131,24.5 26.34375,24.5 z"
     id="path4003" />
</svg>

<svg xmlns="http://www.w3.org/2000/svg" viewBox="0 0 64 64"><g color="#000"><path d="m0 4v30 28l2 2h30 30l2-2v-28-30h-32-32" fill="#cd4231"/><path d="m2 0l-2 1v3h32 32v-3l-2-1h-30-30" fill="#ff714d"/></g><path d="m0 3v3l2-2z" fill="#ff896a"/><path d="m64 6l-2-2 2-1z" fill="#e4593f"/><path d="m32 15c-10.465 0-19 8.535-19 19 0 10.466 8.535 19 19 19 10.465 0 19-8.534 19-19 0-10.465-8.535-19-19-19m-5.656 9.5c.256 0 .523.117.719.313l4.938 4.938 4.938-4.938c.392-.392 1.046-.392 1.438 0l2.813 2.813c.392.392.392 1.046 0 1.438l-4.938 4.938 4.938 4.938c.392.392.392 1.046 0 1.438l-2.813 2.813c-.392.392-1.046.392-1.438 0l-4.938-4.938-4.938 4.938c-.392.392-1.046.392-1.438 0l-2.813-2.813c-.392-.392-.392-1.046 0-1.438l4.938-4.938-4.938-4.938c-.392-.392-.392-1.046 0-1.438l2.813-2.813c.196-.196.463-.313.719-.313" color="#000" fill="#fae4d6"/></svg>
